X:1
T: Broadford Bay (I)
C:
R:Reel
Q: 232
K:Am
M:4/4
L:1/8
Bd|:e2ed de ed|Be ed B2A2|GG GB G2B2|GB Bd B2d2|
e2ed de ed|Be ed B2AG|AA AB e2dB|A4 A2Bd:|
e2g2 a2e^f|g^f ed B2A2|GG GB G2B2|GB Bd B2d2|
e^f ge a2Aa|g^f ed B2AG|AA AB e2dB|A4 A2Bd|
e2g2 a2e^f|g^f ed B2A2|GG GB G2B2|GB Bd B2d2|
e2ed de ed|Be ed B2AG|AA AB e2dB|A4 A2||
